icon/gr/zoom.svg

<svg viewBox="0 0 24 24" fill="none" xmlns="http://www.w3.org/2000/svg" height="1em" width="1em">
  <path d="M0 8C0 3.58172 3.58172 0 8 0H16C20.4183 0 24 3.58172 24 8V16C24 20.4183 20.4183 24 16 24H8C3.58172 24 0 20.4183 0 16V8Z" fill="#3984FD"/>
  <path d="M5 9C5 8.44772 5.44772 8 6 8H12C13.6569 8 15 9.34315 15 11V15C15 15.5523 14.5523 16 14 16H8C6.34315 16 5 14.6569 5 13V9Z" fill="white"/>
  <path d="M15.5 11.7515C15.5 11.2671 15.6758 10.7991 15.9948 10.4345L17.6856 8.50226C18.1416 7.98108 19 8.30361 19 8.99613V15.004C19 15.6965 18.1416 16.019 17.6856 15.4978L15.9948 13.5656C15.6758 13.201 15.5 12.733 15.5 12.2486V11.7515Z" fill="white"/>
</svg>

<svg width="24" height="24" fill="none" xmlns="http://www.w3.org/2000/svg"><path d="M0 8a8 8 0 0 1 8-8h8a8 8 0 0 1 8 8v8a8 8 0 0 1-8 8H8a8 8 0 0 1-8-8V8Z" fill="#3984FD"/><path d="M5 9a1 1 0 0 1 1-1h6a3 3 0 0 1 3 3v4a1 1 0 0 1-1 1H8a3 3 0 0 1-3-3V9ZM15.5 11.752a2 2 0 0 1 .495-1.318l1.69-1.932c.457-.52 1.315-.198 1.315.494v6.008c0 .693-.858 1.015-1.314.494l-1.691-1.932a2 2 0 0 1-.495-1.317v-.498Z" fill="#fff"/></svg>
